X: 10122
Q: "Sprightly dance."
M: C|
L: 1/8
K: F
|:\
fdcB ABTc2 | fdcB ABca |\
fdcB ABTc2 | BAGF ECEG |\
fdcB ABTc2 | fdcB ABca |\
f>edf cfAc |
[1 TFEFd cFTA2 | BAGF ECEG :|\
[2 fedb caAc | BAGF ECEG |]


